public/img/pagespeed.svg

<svg fill="none" height="24" viewBox="0 0 24 24" width="24" xmlns="http://www.w3.org/2000/svg"><g clip-rule="evenodd" fill-rule="evenodd"><path d="m2 6.16667h20v12.50003h-20z" fill="#def"/><path d="m22 6.16668h-20v-2.50418c0-.91816.74754-1.6625 1.67078-1.6625h16.65842c.9227 0 1.6708.74344 1.6708 1.6625z" fill="#bdf"/><path d="m7 4.91668c-.46023 0-.83332-.37313-.83332-.83336s.37305-.83332.83332-.83332.83332.37309.83332.83332-.37305.83336-.83332.83336zm-2.91668 0c-.46023 0-.83332-.37313-.83332-.83336s.37309-.83332.83332-.83332.83336.37309.83336.83332-.37313.83336-.83336.83336z" fill="#fff"/><path d="m5.33332 18.6667h-3.33332c0-2.5592.97633-5.1185 2.92891-7.0711 3.90527-3.90525 10.23689-3.90525 14.14219 0l-2.357 2.357c-1.2065-1.2064-2.8732-1.9526-4.7141-1.9526-3.68192 0-6.66668 2.9848-6.66668 6.6667z" fill="#06f"/><path d="m18.6667 18.6667h3.3333c0-2.5592-.9763-5.1185-2.9289-7.0711l-2.357 2.357c1.2064 1.2065 1.9526 2.8731 1.9526 4.7141z" fill="#c6f"/><path d="m9.64294 21.0237c-1.30175-1.3017-1.30175-3.4123 0-4.7141 1.30176-1.3017 8.54426-3.8301 8.54426-3.8301s-2.5284 7.2425-3.8302 8.5442-3.4123 1.3017-4.71406 0z" fill="#6cf"/><path d="m12 20.3333c-.9205 0-1.6667-.7462-1.6667-1.6666 0-.9205.7462-1.6667 1.6667-1.6667s1.6667.7462 1.6667 1.6667c0 .9204-.7462 1.6666-1.6667 1.6666z" fill="#06f"/></g></svg>

<svg width="24" height="24" viewBox="0 0 24 24" fill="none" xmlns="http://www.w3.org/2000/svg">
<path fill-rule="evenodd" clip-rule="evenodd" d="M2 6.16667H22V18.6667H2V6.16667Z" fill="#DDEEFF"/>
<path fill-rule="evenodd" clip-rule="evenodd" d="M22 6.16668H2V3.6625C2 2.74434 2.74754 2 3.67078 2H20.3292C21.2519 2 22 2.74344 22 3.6625V6.16668Z" fill="#BBDDFF"/>
<path fill-rule="evenodd" clip-rule="evenodd" d="M7 4.91668C6.53977 4.91668 6.16668 4.54355 6.16668 4.08332C6.16668 3.62309 6.53973 3.25 7 3.25C7.46027 3.25 7.83332 3.62309 7.83332 4.08332C7.83332 4.54355 7.46027 4.91668 7 4.91668ZM4.08332 4.91668C3.62309 4.91668 3.25 4.54355 3.25 4.08332C3.25 3.62309 3.62309 3.25 4.08332 3.25C4.54355 3.25 4.91668 3.62309 4.91668 4.08332C4.91668 4.54355 4.54355 4.91668 4.08332 4.91668Z" fill="white"/>
<path fill-rule="evenodd" clip-rule="evenodd" d="M5.33332 18.6667H2C2 16.1075 2.97633 13.5482 4.92891 11.5956C8.83418 7.69035 15.1658 7.69035 19.0711 11.5956L16.7141 13.9526C15.5076 12.7462 13.8409 12 12 12C8.31808 12 5.33332 14.9848 5.33332 18.6667Z" fill="#0066FF"/>
<path fill-rule="evenodd" clip-rule="evenodd" d="M18.6667 18.6667H22C22 16.1075 21.0237 13.5482 19.0711 11.5956L16.7141 13.9526C17.9205 15.1591 18.6667 16.8257 18.6667 18.6667Z" fill="#CC66FF"/>
<path fill-rule="evenodd" clip-rule="evenodd" d="M9.64294 21.0237C8.34119 19.722 8.34119 17.6114 9.64294 16.3096C10.9447 15.0079 18.1872 12.4795 18.1872 12.4795C18.1872 12.4795 15.6588 19.722 14.357 21.0237C13.0552 22.3254 10.9447 22.3254 9.64294 21.0237Z" fill="#66CCFF"/>
<path fill-rule="evenodd" clip-rule="evenodd" d="M12 20.3333C11.0795 20.3333 10.3333 19.5871 10.3333 18.6667C10.3333 17.7462 11.0795 17 12 17C12.9205 17 13.6667 17.7462 13.6667 18.6667C13.6667 19.5871 12.9205 20.3333 12 20.3333Z" fill="#0066FF"/>
</svg>
